X:410
T:Lady Doune
R:Strathspey
B:The Athole Collection
M:C
L:1/8
K:F
c|f2 f>a f<f f>a|g>ag>f d2 d>e|f2 f>a f<f f>a|g>fa>g f2 f>F|
c<c c>a f<f f>a|b>ag>f d2 d>e|f<ad<f c<fA<f|A/B/c c>A F2F:|
|:B|A/B/c c>A B>df>d|c>Af>A G2 G>B|1 A/B/c c>A B>df>d|
c<Af<A F2F:|2 (3ABc (3Bcd c>fe>f|c>f a/g/f/e/ f2f||

